svg/u1f31f.svg

<svg viewBox="0 0 128 128" xmlns="http://www.w3.org/2000/svg">
  <rect fill="#F2F2F2" height="0.67" width="0" x="-1228" y="-57.67"/>
  <g>
    <path d="M36.46,36.81l-14.14-9.06C21.1,27,20.9,25.31,21.91,24.3l5.31-5.31c1.02-1.02,2.74-0.8,3.47,0.45 l8.84,14.37C40.69,35.79,38.42,38.01,36.46,36.81z" fill="#FFC107"/>
    <path d="M24.1,80.39L7.68,80.72c-1.43,0.03-2.45,1.39-2.09,2.77l1.91,7.26c0.37,1.4,1.96,2.07,3.22,1.37 l14.51-7.59C27.23,83.4,26.4,80.34,24.1,80.39z" fill="#FFC107"/>
    <path d="M62.24,108.28l-3.6,15.99c-0.33,1.39,0.72,2.73,2.15,2.73h7.51c1.45,0,2.5-1.37,2.14-2.77 l-3.91-15.99C65.95,106.01,62.78,106.04,62.24,108.28z" fill="#FFC107"/>
    <path d="M91.54,36.81l14.14-9.06c1.22-0.75,1.42-2.44,0.41-3.45l-5.31-5.31c-1.02-1.02-2.74-0.8-3.47,0.45 l-8.84,14.37C87.31,35.79,89.58,38.01,91.54,36.81z" fill="#FFC107"/>
    <path d="M103.9,80.39l16.42,0.33c1.43,0.03,2.45,1.39,2.09,2.77l-1.91,7.26c-0.37,1.4-1.96,2.07-3.22,1.37 l-14.51-7.59C100.77,83.4,101.6,80.34,103.9,80.39z" fill="#FFC107"/>
  </g>
  <g>
    <path d="M68.05,7.23l13.46,30.7c1.03,2.35,3.26,3.96,5.82,4.19l32.79,2.94c3.71,0.54,5.19,5.09,2.5,7.71 L97.92,73.52c-2,1.68-2.91,4.32-2.36,6.87l7.18,33.61c0.63,3.69-3.24,6.51-6.56,4.76L67.56,102c-2.2-1.29-4.92-1.29-7.12,0 l-28.62,16.75c-3.31,1.74-7.19-1.07-6.56-4.76l7.18-33.61c0.54-2.55-0.36-5.19-2.36-6.87L5.37,52.78c-2.68-2.61-1.2-7.17,2.5-7.71 l32.79-2.94c2.56-0.23,4.79-1.84,5.82-4.19l13.46-30.7C61.61,3.88,66.39,3.88,68.05,7.23z" fill="#FDD835"/>
    <path d="M67.07,39.77l-2.28-22.62c-0.09-1.26-0.35-3.42,1.67-3.42c1.6,0,2.47,3.33,2.47,3.33l6.84,18.16 c2.58,6.91,1.52,9.28-0.97,10.68C71.94,47.5,67.72,46.25,67.07,39.77z" fill="#FFFF8D"/>
    <path d="M95.28,71.51L114.9,56.2c0.97-0.81,2.72-2.1,1.32-3.57c-1.11-1.16-4.11,0.51-4.11,0.51l-17.17,6.71 c-5.12,1.77-8.52,4.39-8.82,7.69C85.73,71.94,89.68,75.33,95.28,71.51z" fill="#F4B400"/>
  </g>
</svg>

<svg viewBox="0 0 128 128" xmlns="http://www.w3.org/2000/svg">
  <defs/>
  <path d="M36.46,36.81 L22.32,27.75 C21.1,27 20.9,25.31 21.91,24.3 L27.22,18.99 C28.24,17.97 29.96,18.19 30.69,19.44 L39.53,33.81 C40.69,35.79 38.42,38.01 36.46,36.81 Z" fill="#FFC107"/>
  <path d="M24.1,80.39 L7.68,80.72 C6.25,80.75 5.23,82.11 5.59,83.49 L7.5,90.75 C7.87,92.15 9.46,92.82 10.72,92.12 L25.23,84.53 C27.23,83.4 26.4,80.34 24.1,80.39 Z" fill="#FFC107"/>
  <path d="M62.24,108.28 L58.64,124.27 C58.31,125.66 59.36,127 60.79,127 L68.3,127 C69.75,127 70.8,125.63 70.44,124.23 L66.53,108.24 C65.95,106.01 62.78,106.04 62.24,108.28 Z" fill="#FFC107"/>
  <path d="M91.54,36.81 L105.68,27.75 C106.9,27 107.1,25.31 106.09,24.3 L100.78,18.99 C99.76,17.97 98.04,18.19 97.31,19.44 L88.47,33.81 C87.31,35.79 89.58,38.01 91.54,36.81 Z" fill="#FFC107"/>
  <path d="M103.9,80.39 L120.32,80.72 C121.75,80.75 122.77,82.11 122.41,83.49 L120.5,90.75 C120.13,92.15 118.54,92.82 117.28,92.12 L102.77,84.53 C100.77,83.4 101.6,80.34 103.9,80.39 Z" fill="#FFC107"/>
  <path d="M68.05,7.23 L81.51,37.93 C82.54,40.28 84.77,41.89 87.33,42.12 L120.12,45.06 C123.83,45.6 125.31,50.15 122.62,52.77 L97.92,73.52 C95.92,75.2 95.01,77.84 95.56,80.39 L102.74,114 C103.37,117.69 99.5,120.51 96.18,118.76 L67.56,102 C65.36,100.71 62.64,100.71 60.44,102 L31.82,118.75 C28.51,120.49 24.63,117.68 25.26,113.99 L32.44,80.38 C32.98,77.83 32.08,75.19 30.08,73.51 L5.37,52.78 C2.69,50.17 4.17,45.61 7.87,45.07 L40.66,42.13 C43.22,41.9 45.45,40.29 46.48,37.94 L59.94,7.24 C61.61,3.88 66.39,3.88 68.05,7.23 Z" fill="#FDD835"/>
  <path d="M67.07,39.77 L64.79,17.15 C64.7,15.89 64.44,13.73 66.46,13.73 C68.06,13.73 68.93,17.06 68.93,17.06 L75.77,35.22 C78.35,42.13 77.29,44.5 74.8,45.9 C71.94,47.5 67.72,46.25 67.07,39.77 Z" fill="#FFFF8D"/>
  <path d="M95.28,71.51 L114.9,56.2 C115.87,55.39 117.62,54.1 116.22,52.63 C115.11,51.47 112.11,53.14 112.11,53.14 L94.94,59.85 C89.82,61.62 86.42,64.24 86.12,67.54 C85.73,71.94 89.68,75.33 95.28,71.51 Z" fill="#F4B400"/>
</svg>
